X:364
T: ICH FORCHT MICH
N: E0204B
O: Europa, Mitteleuropa, Deutschland
R: erzaehlendes Volks - Lied, Todes - Ahnung; betrogene Liebe
M: 2/4
L: 1/16
K: F
F2 | A2A2A2A2 | c4c2B2 | A4G4 | F4z2
F2 | ccccc2de | f2f2c2
B2 | A2A2c2cB | A4G4 | F4z2

@@@ Tune index: 4014
